!! 00000] TT[WS
!!!OTL: Taiping nian
!!!ARE: Asia, China,ÿShanxi Heshun
!! Ethnic Group: Han
!! WI, 122 (1)
!!!SCT: J0144
!!!YEM: Copyright 1995, estate of Helmut Schaffrath.
**kern
*ICvox
*Ivox
*M2/4
*k[b-e-a-]
*E-:
{8f
4f
8g
=1
4.b-
8ee-
=2
8cc
8b-
8g
8f
=3
4b-
8e-
8g
=4
2f}
=5
{8f
4f
8g
=6
4.b-
8ee-
=7
8cc
8b-
8g
8f
=8
8b-
8b-
8e-
8g
=9
2f}
=10
{4c
4b-
=11
4b-
8g
8f
=12
4e-
4e-
=13
8f
8g
8f
8e-
=14
8c
4e-
8c
=15
2B-}
=16
{8c
8e-
8c
8e-
=17
2f
=18
4g
8f
8e-
=19
8c
8c
8e-
8c
=20
8cc
8b-
8a-
8g
=21
2b-}
==
!!!AGN: Xiaodiao. Qingge
!!!ONB: ESAC (Essen Associative Code) Database: CHINA
!!!AMT: simple duple
!!!AIN: vox
!!!EED: Helmut Schaffrath
!!!EEV: 1.0
*-
